svg/sun_wireless.svg

<svg xmlns="http://www.w3.org/2000/svg" viewBox="0 0 24 24"><path d="M11 6c2.76 0 5 2.24 5 5s-2.24 5-5 5-5-2.24-5-5 2.24-5 5-5m0-5 2.39 3.42C12.65 4.15 11.84 4 11 4s-1.65.15-2.39.42zM2.34 6l4.16-.35A7.2 7.2 0 0 0 4.94 7.5c-.44.74-.69 1.5-.83 2.29zm.02 10 1.76-3.77a7.13 7.13 0 0 0 2.38 4.14zM19.65 6l-1.77 3.79a7.02 7.02 0 0 0-2.38-4.15zM23 13h-2c0 2.05-.78 4.1-2.34 5.66A7.96 7.96 0 0 1 13 21v2c2.56 0 5.12-1 7.07-2.93S23 15.56 23 13m-4 0h-2c0 1-.39 2.05-1.17 2.83S14 17 13 17v2a5.99 5.99 0 0 0 6-6"/></svg>

<svg xmlns="http://www.w3.org/2000/svg" id="mdi-sun-wireless" viewBox="0 0 24 24"><path d="M11 6C13.76 6 16 8.24 16 11S13.76 16 11 16 6 13.76 6 11 8.24 6 11 6M11 1L13.39 4.42C12.65 4.15 11.84 4 11 4S9.35 4.15 8.61 4.42L11 1M2.34 6L6.5 5.65C5.9 6.16 5.36 6.78 4.94 7.5C4.5 8.24 4.25 9 4.11 9.79L2.34 6M2.36 16L4.12 12.23C4.26 13 4.53 13.78 4.95 14.5C5.37 15.24 5.91 15.86 6.5 16.37L2.36 16M19.65 6L17.88 9.79C17.74 9 17.47 8.23 17.05 7.5C16.63 6.78 16.1 6.15 15.5 5.64L19.65 6M23 13H21C21 15.05 20.22 17.1 18.66 18.66C17.09 20.23 15.05 21 13 21V23C15.56 23 18.12 22 20.07 20.07S23 15.56 23 13M19 13H17C17 14 16.61 15.05 15.83 15.83C15.05 16.61 14 17 13 17V19C14.54 19 16.08 18.41 17.25 17.24C18.41 16.08 19 14.54 19 13" /></svg>
